pype/resources/ftrack/action_icons/CreateFolders.svg

<?xml version="1.0" ?>
<svg enable-background="new 0 0 512 512" id="Layer_1" version="1.1" viewBox="0 0 512 512" xml:space="preserve" xmlns="http://www.w3.org/2000/svg" xmlns:xlink="http://www.w3.org/1999/xlink">
  <g>
    <g>
      <linearGradient gradientUnits="userSpaceOnUse" id="SVGID_1_" x1="-0.0000027" x2="512" y1="256" y2="256">
        <stop offset="0" style="stop-color:#8DC63F"/>
        <stop offset="1" style="stop-color:#66A82F"/>
      </linearGradient><circle cx="256" cy="256" fill="url(#SVGID_1_)" r="256"/>
      <linearGradient gradientUnits="userSpaceOnUse" id="SVGID_2_" x1="42.6666641" x2="469.3333435" y1="256.0005188" y2="256.0005188">
        <stop offset="0" style="stop-color:#66A82F"/>
        <stop offset="1" style="stop-color:#8DC63F"/>
      </linearGradient>
      <path d="M256,469.3338623c-117.6314697,0-213.3333435-95.7023926-213.3333435-213.3333435    c0-117.6314545,95.7018661-213.333313,213.3333435-213.333313c117.6357422,0,213.3333435,95.7018661,213.3333435,213.333313    C469.3333435,373.6314697,373.6357422,469.3338623,256,469.3338623z" fill="url(#SVGID_2_)"/>
    </g>
    <g>
      <path d="M144,301.7520142V384h120h120v-82.2479858v-81.3093414H144V301.7520142z M237.8101349,314.8128052
        m -15, -5
        a 45,45 0 1,1 100,0
        a 45,45 0 1,1 -100,0
        m 90, 0
        a 15,15 0 1,0 -80,0
        a 15,15 0 1,0 80,0
        m -70, 5
        v-10 h25 v-25 h10 v25 h25 v10 h-25 v25 h-10 v-25 h-25
        " opacity="0.3"/>
      <polygon opacity="0.3" points="259.8346558,176.3594666 229,144 144,144 144,210.4426727 384,210.4426727 384,176.3594666   "/>
    </g>
    <g>
      <path d="
        M136,293.7520142V376
        h120h120
        v-82.2479858
        v-81.3093414
        H136V293.7520142z
        m 72, 0
        a 45,45 0 1,1 100,0
        a 45,45 0 1,1 -100,0
        m 90, 0
        a 15,15 0 1,0 -80,0
        a 15,15 0 1,0 80,0
        M229.8101349,296.8128052
        v-10 h25 v-25 h10 v25 h25 v10 h-25 v25 h-10 v-25 h-25

        " fill="#FFFFFF"/>
      <polygon fill="#FFFFFF" points="251.834671,168.3594666 221,136 136,136 136,202.4426727 376,202.4426727 376,168.3594666   "/>
    </g>
  </g>
</svg>
<!-- A 45 45, 1, 1, 1, 175 265 Z -->
<!-- v-10 h25 v-25 h10 v25 h25 v10 h-25 v25 h-10 v-25 h-25 -->
<!-- A 45 45, 1, 1, 1, 125 275 -->

<?xml version="1.0" encoding="UTF-8" standalone="no"?>
<!DOCTYPE svg PUBLIC "-//W3C//DTD SVG 1.1//EN" "http://www.w3.org/Graphics/SVG/1.1/DTD/svg11.dtd">
<svg width="100%" height="100%" viewBox="0 0 512 512" version="1.1" xmlns="http://www.w3.org/2000/svg" xmlns:xlink="http://www.w3.org/1999/xlink" xml:space="preserve" xmlns:serif="http://www.serif.com/" style="fill-rule:evenodd;clip-rule:evenodd;stroke-linejoin:round;stroke-miterlimit:2;">
    <g>
        <g>
            <circle cx="256" cy="256" r="256" style="fill:rgb(98,193,114);"/>
            <path d="M256,469.334C138.369,469.334 42.667,373.631 42.667,256.001C42.667,138.369 138.369,42.667 256,42.667C373.636,42.667 469.333,138.369 469.333,256.001C469.333,373.631 373.636,469.334 256,469.334Z" style="fill:rgb(98,193,114);fill-rule:nonzero;"/>
        </g>
        <g>
            <path d="M144,220.443L144,384L384,384L384,220.443L144,220.443ZM222.81,309.813C222.81,282.384 245.381,259.813 272.81,259.813C300.239,259.813 322.81,282.384 322.81,309.813C322.81,337.242 300.239,359.813 272.81,359.813C245.381,359.813 222.81,337.242 222.81,309.813M312.81,309.813C312.81,287.869 294.753,269.813 272.81,269.813C250.867,269.813 232.81,287.869 232.81,309.813C232.81,331.756 250.867,349.813 272.81,349.813C294.753,349.813 312.81,331.756 312.81,309.813M242.81,314.813L242.81,304.813L267.81,304.813L267.81,279.813L277.81,279.813L277.81,304.813L302.81,304.813L302.81,314.813L277.81,314.813L277.81,339.813L267.81,339.813L267.81,314.813L242.81,314.813" style="fill-opacity:0.3;fill-rule:nonzero;"/>
            <path d="M259.835,176.359L229,144L144,144L144,210.443L384,210.443L384,176.359L259.835,176.359Z" style="fill-opacity:0.3;fill-rule:nonzero;"/>
        </g>
        <g transform="matrix(1,0,0,1,10,15)">
            <path d="M136,212.443L136,376L376,376L376,212.443L136,212.443ZM208,293.752C208,266.323 230.571,243.752 258,243.752C285.429,243.752 308,266.323 308,293.752C308,321.181 285.429,343.752 258,343.752C230.571,343.752 208,321.181 208,293.752M298,293.752C298,271.809 279.943,253.752 258,253.752C236.057,253.752 218,271.809 218,293.752C218,315.695 236.057,333.752 258,333.752C279.943,333.752 298,315.695 298,293.752M229.81,296.813L229.81,286.813L254.81,286.813L254.81,261.813L264.81,261.813L264.81,286.813L289.81,286.813L289.81,296.813L264.81,296.813L264.81,321.813L254.81,321.813L254.81,296.813L229.81,296.813" style="fill:white;fill-rule:nonzero;"/>
            <path d="M251.835,168.359L221,136L136,136L136,202.443L376,202.443L376,168.359L251.835,168.359Z" style="fill:white;fill-rule:nonzero;"/>
        </g>
    </g>
</svg>
